!!! OTL: Literature121
!!! Chapter: 5
!!! Section: IV
!!! Page: 373
!!! Mode: 
!!! Encoder: DJB
**kern
*staff1
*I"Piano
=1-
*clefG2
*k[f#c#g#d#a#e#]
*F#:
*M4/4
4c#/
4f#/
4g#/
8f#/L
8g#/J
=2
2a#/
4cc#\
8b/L
8a#/J
=3
4cc#\
4a#/
2f#/
=4
4g#/
4g#/
4a#/
8g#/L
8a#/J
=5
2b\
4dd#\
8b/L
8a#/J
=6
4.a#/
8g#/
4.g#/
8r
=7
4cc#\
4cc#\
4ddn\
8cc#\L
8dd\J
=8
2ee#\
4cc#\
4r
=9
4b\
4a#/
4dd#\
8b/L
8g#/J
=10
!!linebreak:original
2.a#/
4g#/
=11
2f#/
2r
==
*-
